icons/exchange-cny-line.svg

<svg xmlns="http://www.w3.org/2000/svg" width="24" height="24" fill="none"><g clip-path="url(#a)"><g><path fill="#121212" d="M19.375 15.103C20.0238 13.5613 20.1732 11.855 19.8021 10.224C19.4309 8.59305 18.558 7.11939 17.3059 6.01025C16.0539 4.90111 14.4857 4.21227 12.8218 4.04056C11.158 3.86886 9.48217 4.22293 8.02999 5.053L7.03799 3.316C8.55563 2.44862 10.2742 1.99437 12.0222 1.99858C13.7702 2.00279 15.4866 2.46531 17 3.34C21.49 5.932 23.21 11.482 21.117 16.11L22.459 16.884L18.294 19.098L18.129 14.384L19.375 15.103ZM4.62499 8.897C3.97614 10.4387 3.82678 12.145 4.19791 13.776C4.56904 15.407 5.44201 16.8806 6.69407 17.9897C7.94613 19.0989 9.51432 19.7877 11.1782 19.9594C12.842 20.1311 14.5178 19.7771 15.97 18.947L16.962 20.684C15.4444 21.5514 13.7258 22.0056 11.9778 22.0014C10.2298 21.9972 8.51343 21.5347 6.99999 20.66C2.50999 18.068 0.789993 12.518 2.88299 7.89L1.53999 7.117L5.70499 4.903L5.86999 9.617L4.62399 8.898L4.62499 8.897ZM13 13.536H16V15.536H13V17.536H11V15.536H7.99999V13.536H11V12.536H7.99999V10.536H10.586L8.46399 8.414L9.87999 7L12 9.121L14.121 7L15.536 8.414L13.414 10.536H16V12.536H13V13.536Z"/></g></g><defs><clipPath id="a"><rect width="24" height="24" fill="white"/></clipPath></defs></svg>

<svg width="24" height="24" fill="none" xmlns="http://www.w3.org/2000/svg"><g clip-path="url(#a)"><path d="M19.375 15.103A8.002 8.002 0 0 0 8.03 5.053l-.992-1.737A9.996 9.996 0 0 1 17 3.34c4.49 2.592 6.21 8.142 4.117 12.77l1.342.774-4.165 2.214-.165-4.714 1.246.719ZM4.625 8.897a8.001 8.001 0 0 0 11.345 10.05l.992 1.737A9.996 9.996 0 0 1 7 20.66C2.51 18.068.79 12.518 2.883 7.89L1.54 7.117l4.165-2.214.165 4.714-1.246-.719.001-.001ZM13 13.536h3v2h-3v2h-2v-2H8v-2h3v-1H8v-2h2.586L8.464 8.414 9.88 7 12 9.121 14.121 7l1.415 1.414-2.122 2.122H16v2h-3v1Z" /></g><defs><clipPath id="a"><path fill="#fff" d="M0 0h24v24H0z"/></clipPath></defs></svg>
